svg/azure-advisor.svg

<?xml version="1.0" encoding="UTF-8"?>
<svg xmlns="http://www.w3.org/2000/svg" xmlns:xlink="http://www.w3.org/1999/xlink" width="32" height="32" viewBox="0 0 32 32">
<defs>
<linearGradient id="linear-pattern-0" gradientUnits="userSpaceOnUse" x1="9" y1="-0.88" x2="9" y2="16.01" gradientTransform="matrix(1.777778, 0.00266842, -0.00266842, 1.777778, 0, 0)">
<stop offset="0.22" stop-color="rgb(19.607843%, 83.137256%, 96.078432%)" stop-opacity="1"/>
<stop offset="0.43" stop-color="rgb(19.215687%, 81.960785%, 94.901961%)" stop-opacity="1"/>
<stop offset="0.6" stop-color="rgb(17.647059%, 77.64706%, 91.37255%)" stop-opacity="1"/>
<stop offset="0.76" stop-color="rgb(15.686275%, 70.980394%, 85.09804%)" stop-opacity="1"/>
<stop offset="0.91" stop-color="rgb(12.156863%, 61.56863%, 76.862746%)" stop-opacity="1"/>
<stop offset="1" stop-color="rgb(9.803922%, 54.11765%, 70.19608%)" stop-opacity="1"/>
</linearGradient>
</defs>
<path fill-rule="nonzero" fill="url(#linear-pattern-0)" d="M 31.109375 16.78125 C 31.046875 13.414062 28.542969 10.59375 25.207031 10.132812 C 25.0625 5.40625 21.136719 1.679688 16.410156 1.777344 C 12.640625 1.738281 9.253906 4.082031 7.964844 7.625 C 3.953125 8.136719 0.925781 11.511719 0.851562 15.554688 C 0.976562 20.132812 4.789062 23.738281 9.367188 23.609375 C 9.617188 23.625 9.867188 23.625 10.117188 23.609375 L 23.894531 23.609375 C 24.011719 23.628906 24.132812 23.628906 24.25 23.609375 C 28.011719 23.570312 31.054688 20.539062 31.109375 16.78125 "/>
<path fill-rule="nonzero" fill="rgb(21.568628%, 76.078433%, 69.411767%)" fill-opacity="1" d="M 25.832031 26.914062 L 22.277344 30.71875 C 22.15625 30.839844 21.976562 30.882812 21.8125 30.832031 C 21.644531 30.78125 21.523438 30.644531 21.492188 30.472656 L 19.34375 19.980469 C 19.328125 19.808594 19.410156 19.648438 19.554688 19.554688 L 21.902344 18.59375 C 22.128906 18.507812 22.382812 18.609375 22.488281 18.828125 L 25.957031 26.472656 C 26.003906 26.632812 25.957031 26.804688 25.832031 26.914062 "/>
<path fill-rule="nonzero" fill="rgb(25.882354%, 90.980393%, 79.215688%)" fill-opacity="1" d="M 14.222656 26.914062 L 17.777344 30.71875 C 17.898438 30.84375 18.082031 30.886719 18.246094 30.832031 C 18.410156 30.78125 18.53125 30.640625 18.558594 30.472656 L 20.710938 19.980469 C 20.746094 19.773438 20.636719 19.570312 20.445312 19.484375 L 18.097656 18.523438 C 17.871094 18.433594 17.617188 18.535156 17.511719 18.753906 L 14.042969 26.398438 C 13.972656 26.589844 14.046875 26.808594 14.222656 26.914062 "/>
<path fill-rule="nonzero" fill="rgb(0%, 35.686275%, 63.137257%)" fill-opacity="1" d="M 20.585938 10.667969 L 21.050781 10.277344 C 21.355469 10.027344 21.804688 10.066406 22.0625 10.363281 C 22.117188 10.425781 22.160156 10.5 22.1875 10.578125 L 22.398438 11.148438 C 22.527344 11.46875 22.859375 11.65625 23.199219 11.609375 L 23.785156 11.503906 C 24.175781 11.4375 24.550781 11.699219 24.621094 12.089844 C 24.640625 12.171875 24.640625 12.253906 24.621094 12.335938 L 24.515625 12.925781 C 24.464844 13.265625 24.65625 13.597656 24.976562 13.722656 L 25.546875 13.921875 C 25.917969 14.070312 26.105469 14.484375 25.972656 14.863281 C 25.9375 14.9375 25.898438 15.007812 25.847656 15.074219 L 25.457031 15.519531 C 25.242188 15.789062 25.242188 16.175781 25.457031 16.445312 L 25.847656 16.90625 C 25.972656 17.054688 26.03125 17.246094 26.007812 17.4375 C 25.988281 17.628906 25.890625 17.800781 25.742188 17.921875 C 25.683594 17.972656 25.617188 18.011719 25.546875 18.042969 L 24.976562 18.257812 C 24.648438 18.375 24.453125 18.714844 24.515625 19.058594 L 24.621094 19.644531 C 24.660156 19.832031 24.617188 20.027344 24.503906 20.179688 C 24.394531 20.335938 24.222656 20.4375 24.035156 20.460938 C 23.953125 20.480469 23.867188 20.480469 23.785156 20.460938 L 23.199219 20.460938 C 22.855469 20.398438 22.515625 20.59375 22.398438 20.925781 L 22.1875 21.476562 C 22.125 21.65625 21.988281 21.804688 21.8125 21.882812 C 21.640625 21.964844 21.441406 21.972656 21.261719 21.902344 C 21.183594 21.875 21.113281 21.832031 21.050781 21.777344 L 20.605469 21.332031 C 20.339844 21.105469 19.949219 21.105469 19.679688 21.332031 L 19.21875 21.707031 C 19.074219 21.832031 18.882812 21.890625 18.695312 21.875 C 18.503906 21.855469 18.328125 21.765625 18.203125 21.617188 C 18.144531 21.558594 18.101562 21.488281 18.078125 21.40625 L 17.867188 20.851562 C 17.757812 20.519531 17.414062 20.320312 17.066406 20.390625 L 16.480469 20.496094 C 16.289062 20.527344 16.09375 20.484375 15.9375 20.371094 C 15.78125 20.257812 15.675781 20.085938 15.644531 19.894531 C 15.628906 19.820312 15.628906 19.742188 15.644531 19.664062 L 15.75 19.074219 C 15.816406 18.730469 15.621094 18.390625 15.289062 18.277344 L 14.738281 18.0625 C 14.359375 17.949219 14.132812 17.558594 14.222656 17.171875 C 14.257812 17.097656 14.296875 17.027344 14.347656 16.960938 L 14.738281 16.496094 C 14.953125 16.226562 14.953125 15.84375 14.738281 15.574219 L 14.347656 15.128906 C 14.226562 14.980469 14.164062 14.785156 14.183594 14.589844 C 14.203125 14.398438 14.300781 14.21875 14.453125 14.097656 C 14.511719 14.042969 14.589844 14.003906 14.667969 13.992188 L 15.21875 13.777344 C 15.539062 13.648438 15.730469 13.320312 15.679688 12.976562 L 15.644531 12.445312 C 15.578125 12.054688 15.839844 11.679688 16.230469 11.609375 L 16.480469 11.609375 L 17.066406 11.714844 C 17.410156 11.773438 17.746094 11.578125 17.867188 11.253906 L 18.078125 10.667969 C 18.222656 10.296875 18.628906 10.109375 19.003906 10.238281 L 19.21875 10.363281 L 19.679688 10.753906 C 19.964844 10.941406 20.34375 10.90625 20.585938 10.667969 "/>
<path fill-rule="nonzero" fill="rgb(100%, 79.215688%, 0%)" fill-opacity="1" d="M 20.140625 11.839844 C 17.824219 11.839844 15.945312 13.71875 15.945312 16.039062 C 15.945312 18.355469 17.824219 20.230469 20.140625 20.230469 C 22.460938 20.230469 24.335938 18.351562 24.335938 16.035156 C 24.335938 13.71875 22.457031 11.839844 20.140625 11.839844 "/>
</svg>

<svg role="img" viewBox="0 0 32 32" xmlns="http://www.w3.org/2000/svg"><defs><linearGradient gradientTransform="rotate(.086)scale(1.77778)" gradientUnits="userSpaceOnUse" id="azure-advisor_svg__a" x1="9" x2="9" y1="-.88" y2="16.01"><stop offset=".22" stop-color="rgb(19.607843%, 83.137256%, 96.078432%)"/><stop offset=".43" stop-color="rgb(19.215687%, 81.960785%, 94.901961%)"/><stop offset=".6" stop-color="rgb(17.647059%, 77.64706%, 91.37255%)"/><stop offset=".76" stop-color="rgb(15.686275%, 70.980394%, 85.09804%)"/><stop offset=".91" stop-color="rgb(12.156863%, 61.56863%, 76.862746%)"/><stop offset="1" stop-color="rgb(9.803922%, 54.11765%, 70.19608%)"/></linearGradient></defs><path d="M31.11 16.781a6.84 6.84 0 0 0-5.903-6.648 8.62 8.62 0 0 0-8.797-8.356 8.89 8.89 0 0 0-8.445 5.848 8.144 8.144 0 0 0-7.113 7.93 8.283 8.283 0 0 0 8.515 8.054q.375.024.75 0h13.778q.177.03.355 0a6.93 6.93 0 0 0 6.86-6.828" fill="url(#azure-advisor_svg__a)"/><path d="m25.832 26.914-3.555 3.805a.46.46 0 0 1-.465.113.46.46 0 0 1-.32-.36L19.344 19.98a.46.46 0 0 1 .21-.425l2.348-.961a.466.466 0 0 1 .586.234l3.469 7.645c.047.16 0 .332-.125.441" fill="rgb(21.568628%, 76.078433%, 69.411767%)"/><path d="m14.223 26.914 3.554 3.805a.45.45 0 0 0 .47.113.45.45 0 0 0 .312-.36L20.71 19.98a.46.46 0 0 0-.266-.496l-2.347-.96a.46.46 0 0 0-.586.23l-3.469 7.644a.43.43 0 0 0 .18.516" fill="rgb(25.882354%, 90.980393%, 79.215688%)"/><path d="m20.586 10.668.465-.39a.73.73 0 0 1 1.012.085.7.7 0 0 1 .125.215l.21.57c.13.32.461.508.801.461l.586-.105a.727.727 0 0 1 .836.586q.03.123 0 .246l-.105.59a.74.74 0 0 0 .46.797l.57.199a.746.746 0 0 1 .427.941 1.2 1.2 0 0 1-.125.211l-.391.446a.745.745 0 0 0 0 .925l.39.461a.72.72 0 0 1-.105 1.016.8.8 0 0 1-.195.121l-.57.215a.715.715 0 0 0-.461.8l.105.587a.67.67 0 0 1-.117.535.68.68 0 0 1-.469.28.54.54 0 0 1-.25 0H23.2a.71.71 0 0 0-.8.466l-.212.55a.7.7 0 0 1-.375.407.7.7 0 0 1-.55.02.6.6 0 0 1-.211-.126l-.446-.445a.715.715 0 0 0-.925 0l-.461.375a.713.713 0 0 1-1.016-.09.5.5 0 0 1-.125-.21l-.21-.555a.696.696 0 0 0-.802-.461l-.586.105a.724.724 0 0 1-.835-.832l.105-.59a.7.7 0 0 0-.46-.797l-.552-.215a.75.75 0 0 1-.515-.89c.035-.074.074-.145.125-.211l.39-.465a.74.74 0 0 0 0-.922l-.39-.445a.727.727 0 0 1 .105-1.031.4.4 0 0 1 .215-.106l.55-.215a.744.744 0 0 0 .462-.8l-.035-.532a.727.727 0 0 1 .585-.836h.25l.586.106a.726.726 0 0 0 .801-.461l.211-.586a.734.734 0 0 1 .926-.43l.215.125.46.39a.726.726 0 0 0 .907-.085" fill="rgb(0%, 35.686275%, 63.137257%)"/><path d="M20.14 11.84a4.197 4.197 0 0 0-4.195 4.2 4.193 4.193 0 0 0 4.196 4.19 4.196 4.196 0 0 0 0-8.39" fill="rgb(100%, 79.215688%, 0%)"/></svg>
